public/key.svg

<svg fill="none" height="50" viewBox="0 0 34 50" width="34" xmlns="http://www.w3.org/2000/svg" xmlns:xlink="http://www.w3.org/1999/xlink"><linearGradient id="a"><stop offset=".00800497" stop-color="#38dbff"/><stop offset="1" stop-color="#243aff"/></linearGradient><linearGradient id="b" gradientUnits="userSpaceOnUse" x1="2.012" x2="31.8295" xlink:href="#a" y1="3.91523" y2="19.867"/><linearGradient id="c" gradientUnits="userSpaceOnUse" x1="-2.29016" x2="39.8121" xlink:href="#a" y1="26.8529" y2="44.3163"/><path d="m17.0085 0c-7.28696 0-13.2166 5.93739-13.2166 13.2443v4.6189h5.08982v-4.6189c0-4.49132 3.64768-8.14052 8.12678-8.14052 4.479 0 8.1182 3.6492 8.1182 8.14052v4.6189h5.0899v-4.6189c0-7.30691-5.9212-13.2443-13.2081-13.2443z" fill="url(#b)"/><path d="m29.241 20.3555h-24.48202c-2.62974 0-4.75898 2.1436-4.75898 4.7805v20.0919c0 2.6369 2.12924 4.772 4.75898 4.772h24.48202c2.6298 0 4.759-2.1351 4.759-4.772v-20.0919c0-2.6369-2.1292-4.7805-4.759-4.7805zm-10.7225 13.8057v3.1388c0 .8421-.6787 1.5226-1.5185 1.5226s-1.5185-.6805-1.5185-1.5226v-3.1388c-1.4675-.604-2.5109-2.05-2.5109-3.7428 0-2.2286 1.8069-4.032 4.0294-4.032 2.2226 0 4.0294 1.8034 4.0294 4.032 0 1.6928-1.0434 3.1388-2.5109 3.7428z" fill="url(#c)"/></svg>

<svg width="34" height="50" viewBox="0 0 34 50" fill="none" xmlns="http://www.w3.org/2000/svg">
<path d="M17.0085 0C9.72154 0 3.7919 5.93739 3.7919 13.2443V17.8632H8.88172V13.2443C8.88172 8.75298 12.5294 5.10378 17.0085 5.10378C21.4875 5.10378 25.1267 8.75298 25.1267 13.2443V17.8632H30.2166V13.2443C30.2166 5.93739 24.2954 0 17.0085 0Z" fill="url(#paint0_linear_76_1178)"/>
<path d="M29.241 20.3555H4.75898C2.12924 20.3555 0 22.4991 0 25.136V45.2279C0 47.8648 2.12924 49.9999 4.75898 49.9999H29.241C31.8708 49.9999 34 47.8648 34 45.2279V25.136C34 22.4991 31.8708 20.3555 29.241 20.3555ZM18.5185 34.1612V37.3C18.5185 38.1421 17.8398 38.8226 17 38.8226C16.1602 38.8226 15.4815 38.1421 15.4815 37.3V34.1612C14.014 33.5572 12.9706 32.1112 12.9706 30.4184C12.9706 28.1898 14.7775 26.3864 17 26.3864C19.2226 26.3864 21.0294 28.1898 21.0294 30.4184C21.0294 32.1112 19.986 33.5572 18.5185 34.1612Z" fill="url(#paint1_linear_76_1178)"/>
<defs>
<linearGradient id="paint0_linear_76_1178" x1="2.012" y1="3.91523" x2="31.8295" y2="19.867" gradientUnits="userSpaceOnUse">
<stop offset="0.00800497" stop-color="#38DBFF"/>
<stop offset="1" stop-color="#243AFF"/>
</linearGradient>
<linearGradient id="paint1_linear_76_1178" x1="-2.29016" y1="26.8529" x2="39.8121" y2="44.3163" gradientUnits="userSpaceOnUse">
<stop offset="0.00800497" stop-color="#38DBFF"/>
<stop offset="1" stop-color="#243AFF"/>
</linearGradient>
</defs>
</svg>
